modules/hawcons-filled/icons/cloud-moon-lightning.svg

<?xml version="1.0" encoding="UTF-8" standalone="no"?>
<svg width="32px" height="32px" viewBox="0 0 32 32" version="1.1" xmlns="http://www.w3.org/2000/svg" xmlns:xlink="http://www.w3.org/1999/xlink" xmlns:sketch="http://www.bohemiancoding.com/sketch/ns">
    <!-- Generator: Sketch 3.0.3 (7891) - http://www.bohemiancoding.com/sketch -->
    <title>icon 12 cloud moon lightning</title>
    <desc>Created with Sketch.</desc>
    <defs></defs>
    <g id="Page-1" stroke="none" stroke-width="1" fill="none" fill-rule="evenodd" sketch:type="MSPage">
        <g id="icon-12-cloud-moon-lightning" sketch:type="MSArtboardGroup" fill="#929292">
            <path d="M17.0666911,21 L19.5999756,21 L13.5,27.1000061 L14.9786564,23 L12.4000244,23 L14.6999512,17 L18.5999756,17 L17.0666911,21 L17.0666911,21 Z M13.5454545,24 L7.99943992,24 C5.23249418,24 3,21.7614237 3,19 C3,16.9491311 4.23965876,15.1816085 6.01189661,14.4115388 C6.00400207,14.275367 6,14.1381509 6,14 C6,10.1340066 9.13400656,7 13,7 C14.1294153,7 15.1963581,7.2674761 16.1409385,7.74253831 C16.0487309,7.34324334 16,6.92731253 16,6.5 C16,3.92337167 17.7718077,1.76057144 20.1635112,1.16351119 C20.5148964,1.07579207 20.879662,1.02186946 21.2541551,1.00539634 C21.089541,1.47303895 21,1.97606276 21,2.5 C21,4.9852815 23.0147185,7 25.5,7 C26.0239372,7 26.5269611,6.91045904 26.9946037,6.74584491 C26.9781305,7.12033801 26.9242079,7.48510364 26.8364888,7.83648881 C26.5780984,8.87154909 26.0264591,9.79050854 25.2749382,10.5 L25.2749382,10.5 C26.3178749,11.4846096 26.9758595,12.8726337 26.9993494,14.4145295 C28.7676457,15.1852931 30,16.9483386 30,19 C30,21.7558048 27.7616745,24 25.0005601,24 L18,24 L11,31 L13.5454545,24 L13.5454545,24 L13.5454545,24 Z M24.4770358,9.87457345 C25.046841,9.37150855 25.4882557,8.72637364 25.7458449,7.99460366 C25.6643448,7.99818867 25.5823839,8 25.5,8 C22.4624337,8 20,5.53756627 20,2.5 C20,2.41761609 20.0018113,2.33565523 20.0053963,2.25415509 C18.2547894,2.87038343 17,4.53865574 17,6.5 C17,7.29950141 17.2084979,8.05030549 17.5740867,8.70100529 C17.959598,9.03407479 18.3083804,9.40850398 18.6135384,9.81739735 C19.4525719,9.29909701 20.441357,9 21.5,9 C22.5969862,9 23.6189624,9.32115547 24.4770358,9.87457345 L24.4770358,9.87457345 L24.4770358,9.87457345 Z" id="cloud-moon-lightning" sketch:type="MSShapeGroup"></path>
        </g>
    </g>
</svg>

<svg width="32" height="32" viewBox="0 0 32 32" xmlns="http://www.w3.org/2000/svg"><path d="M17.067 21H19.6l-6.1 6.1 1.479-4.1H12.4l2.3-6h3.9l-1.533 4zm-3.522 3H8C5.232 24 3 21.761 3 19c0-2.05 1.24-3.818 3.012-4.588A7 7 0 0 1 16.14 7.743a5.502 5.502 0 0 1 5.113-6.737 4.5 4.5 0 0 0 5.74 5.74 5.495 5.495 0 0 1-1.72 3.754A5.484 5.484 0 0 1 27 14.415C28.768 15.185 30 16.948 30 19c0 2.756-2.238 5-5 5h-7l-7 7 2.545-7zM24.477 9.875a4.506 4.506 0 0 0 1.269-1.88 5.5 5.5 0 0 1-5.74-5.74A4.502 4.502 0 0 0 17.573 8.7c.386.333.734.708 1.04 1.116A5.474 5.474 0 0 1 21.5 9c1.097 0 2.119.321 2.977.875z" fill="#929292" fill-rule="evenodd"/></svg>
